X:1
T: Scotland's Golden Years
C:
R:Jig
Q:180
K:A
M:6/8
L:1/16
|:e2|a2g2f2 e2d2c2|f2e2d2 c4B2|A2B2c2 d2e2f2|e2f2g2 a4g2|
|1f2d2g2 a2g2f2|e2d2c2 e2d2c2|B2^d2f2 a2g2f2|e2g2f2 e4:|
|2f2d2f2 a2g2f2|e2c2e2 a4c2|B2c2d2 e2f2g2|a6 a4g2|
f2d2f2 a2g2f2|e2c2e2 a2e2c2|B2c2d2 G2A2B2|A2B2c2 d2e2^e2|
f2d2f2 a2g2f2|e2c2e2 a2e2c2|B2^d2f2 a2g2f2|e2g2f2 e4e2|
|:f2d2f2 a2g2f2|e2c2e2 a2e2c2|B2c2d2 G2A2B2|A2B2c2 d2e2^e2|
f2d2f2 a2g2f2|e2c2e2 a4c2|B2c2d2 e2f2g2|1a6 a4e2:|2a6 a4||
